assets/sonr-icons/browser.svg

<svg xmlns="http://www.w3.org/2000/svg" width="24" height="24" fill="none" viewBox="0 0 24 24"><path stroke="#000" stroke-linecap="round" stroke-linejoin="round" stroke-width="2" d="M3 11H21M5 19H19C20.1046 19 21 18.1046 21 17V7C21 5.89543 20.1046 5 19 5H5C3.89543 5 3 5.89543 3 7V17C3 18.1046 3.89543 19 5 19Z"/><path fill="#000" stroke="#000" stroke-width=".5" d="M6 8.75C6.41421 8.75 6.75 8.41421 6.75 8C6.75 7.58579 6.41421 7.25 6 7.25C5.58579 7.25 5.25 7.58579 5.25 8C5.25 8.41421 5.58579 8.75 6 8.75ZM9 8.75C9.41421 8.75 9.75 8.41421 9.75 8C9.75 7.58579 9.41421 7.25 9 7.25C8.58579 7.25 8.25 7.58579 8.25 8C8.25 8.41421 8.58579 8.75 9 8.75ZM12 8.75C12.4142 8.75 12.75 8.41421 12.75 8C12.75 7.58579 12.4142 7.25 12 7.25C11.5858 7.25 11.25 7.58579 11.25 8C11.25 8.41421 11.5858 8.75 12 8.75Z"/></svg>

<svg xmlns="http://www.w3.org/2000/svg" width="24" height="24" fill="none"><path stroke="#000" stroke-linecap="round" stroke-linejoin="round" stroke-width="2" d="M3 11h18M5 19h14a2 2 0 0 0 2-2V7a2 2 0 0 0-2-2H5a2 2 0 0 0-2 2v10a2 2 0 0 0 2 2"/><path fill="currentColor" stroke="#000" stroke-width=".5" d="M6 8.75a.75.75 0 1 0 0-1.5.75.75 0 0 0 0 1.5Zm3 0a.75.75 0 1 0 0-1.5.75.75 0 0 0 0 1.5Zm3 0a.75.75 0 1 0 0-1.5.75.75 0 0 0 0 1.5Z"/></svg>
